icons/virus-mutation.svg

<svg width="48" height="48" viewBox="0 0 48 48" fill="none" xmlns="http://www.w3.org/2000/svg">
<path fill-rule="evenodd" clip-rule="evenodd" d="M28.8961 15C29.031 15.6929 29.3036 16.3366 29.6842 16.9016L29.0999 17.4858C28.7089 17.1024 28.081 17.1048 27.6929 17.4929C27.3024 17.8834 27.3024 18.5166 27.6929 18.9071L29.0929 20.3071C29.4834 20.6977 30.1166 20.6977 30.5071 20.3071C30.8953 19.919 30.8976 19.2911 30.5142 18.9L31.0984 18.3158C31.6633 18.6964 32.3071 18.969 33 19.1039V20.0458C32.5943 20.1732 32.3 20.5522 32.3 21C32.3 21.5523 32.7477 22 33.3 22H33.9929L34 22L34.0071 22H34.7C35.2523 22 35.7 21.5523 35.7 21C35.7 20.5522 35.4057 20.1732 35 20.0458V19.1039C35.8629 18.9359 36.6494 18.5544 37.3026 18.0168L38.1858 18.9C37.8024 19.2911 37.8047 19.919 38.1929 20.3071C38.5834 20.6977 39.2166 20.6977 39.6071 20.3071L41.0071 18.9071C41.3976 18.5166 41.3976 17.8834 41.0071 17.4929C40.619 17.1048 39.9911 17.1024 39.6001 17.4858L38.5796 16.4654C38.8236 16.013 39.0026 15.5204 39.1039 15H40.0458C40.1732 15.4057 40.5522 15.7 41 15.7C41.5523 15.7 42 15.2523 42 14.7V13.3C42 12.7477 41.5523 12.3 41 12.3C40.5522 12.3 40.1732 12.5943 40.0458 13H39.1039C38.969 12.3071 38.6964 11.6634 38.3158 11.0984L38.9 10.5142C39.2911 10.8976 39.919 10.8952 40.3071 10.5071C40.6976 10.1166 40.6976 9.48341 40.3071 9.09288L38.9071 7.69288C38.5166 7.30236 37.8834 7.30236 37.4929 7.69288C37.1047 8.08104 37.1024 8.70891 37.4858 9.09997L36.9016 9.6842C36.3367 9.30362 35.6929 9.03104 35 8.89607V7.95422C35.4057 7.8268 35.7 7.44777 35.7 7C35.7 6.44772 35.2523 6 34.7 6H33.3C32.7477 6 32.3 6.44772 32.3 7C32.3 7.44776 32.5943 7.82679 33 7.95422V8.89607C32.3071 9.03105 31.6633 9.30362 31.0984 9.6842L30.5142 9.09997C30.8976 8.70891 30.8953 8.08104 30.5071 7.69288C30.1166 7.30236 29.4834 7.30236 29.0929 7.69288L27.6929 9.09288C27.3024 9.48341 27.3024 10.1166 27.6929 10.5071C28.081 10.8952 28.7089 10.8976 29.1 10.5142L29.6842 11.0984C29.3036 11.6634 29.031 12.3071 28.8961 13H27.9542C27.8268 12.5943 27.4478 12.3 27 12.3C26.4477 12.3 26 12.7477 26 13.3V14.7C26 15.2523 26.4477 15.7 27 15.7C27.4478 15.7 27.8268 15.4057 27.9542 15H28.8961ZM30.8 14C30.8 12.2327 32.2327 10.8 34 10.8C35.7673 10.8 37.2 12.2327 37.2 14C37.2 15.7673 35.7673 17.2 34 17.2C32.2327 17.2 30.8 15.7673 30.8 14Z" fill="black"/>
<path fill-rule="evenodd" clip-rule="evenodd" d="M10.0709 32C10.2405 33.1859 10.7074 34.2759 11.3936 35.1922L10 36.5858L9.70711 36.2929C9.31659 35.9024 8.68342 35.9024 8.2929 36.2929C7.90237 36.6834 7.90237 37.3166 8.2929 37.7071L10.2929 39.7071C10.6834 40.0976 11.3166 40.0976 11.7071 39.7071C12.0976 39.3166 12.0976 38.6834 11.7071 38.2929L11.4142 38L12.8078 36.6064C13.7241 37.2926 14.8141 37.7595 16 37.9291L16 40C15.4477 40 15 40.4477 15 41C15 41.5523 15.4477 42 16 42H18C18.5523 42 19 41.5523 19 41C19 40.4477 18.5523 40 18 40L18 37.9291C19.4315 37.7244 20.7233 37.0865 21.7383 36.1526L23.5858 38L23.2929 38.2929C22.9024 38.6834 22.9024 39.3166 23.2929 39.7071C23.6834 40.0976 24.3166 40.0976 24.7071 39.7071L26.7071 37.7071C27.0976 37.3166 27.0976 36.6834 26.7071 36.2929C26.3166 35.9024 25.6834 35.9024 25.2929 36.2929L25 36.5858L23.0082 34.594C23.4752 33.8149 23.795 32.9374 23.9291 32L26 32C26 32.5523 26.4477 33 27 33C27.5523 33 28 32.5523 28 32V30C28 29.4477 27.5523 29 27 29C26.4477 29 26 29.4477 26 30L23.9291 30C23.7595 28.8141 23.2926 27.7241 22.6064 26.8078L24 25.4142L24.2929 25.7071C24.6834 26.0976 25.3166 26.0976 25.7071 25.7071C26.0976 25.3166 26.0976 24.6834 25.7071 24.2929L23.7071 22.2929C23.3166 21.9024 22.6834 21.9024 22.2929 22.2929C21.9024 22.6834 21.9024 23.3166 22.2929 23.7071L22.5858 24L21.1922 25.3936C20.2759 24.7074 19.1859 24.2405 18 24.0709L18 22C18.5523 22 19 21.5523 19 21C19 20.4477 18.5523 20 18 20H16C15.4477 20 15 20.4477 15 21C15 21.5523 15.4477 22 16 22L16 24.0709C14.8141 24.2405 13.7241 24.7074 12.8078 25.3936L11.4142 24L11.7071 23.7071C12.0976 23.3166 12.0976 22.6834 11.7071 22.2929C11.3166 21.9024 10.6834 21.9024 10.2929 22.2929L8.2929 24.2929C7.90237 24.6834 7.90237 25.3166 8.2929 25.7071C8.68342 26.0976 9.31659 26.0976 9.70711 25.7071L9.99998 25.4142L11.3936 26.8078C10.7074 27.7241 10.2405 28.8141 10.0709 30L8 30C8 29.4477 7.55228 29 7 29C6.44772 29 6 29.4477 6 30V32C6 32.5523 6.44772 33 7 33C7.55228 33 8 32.5523 8 32L10.0709 32ZM17 26C14.2386 26 12 28.2386 12 31C12 33.7614 14.2386 36 17 36C19.7614 36 22 33.7614 22 31C22 28.2386 19.7614 26 17 26Z" fill="black"/>
<path d="M29.5 40L35.1433 40C35.6034 40 36.0662 39.7999 36.4234 39.407C36.7834 39.0111 37 38.4553 37 37.8581V32.4142L35.7071 33.7071C35.3166 34.0976 34.6834 34.0976 34.2929 33.7071C33.9024 33.3166 33.9024 32.6834 34.2929 32.2929L37.2913 29.2945C37.4611 29.1239 37.6921 29.0143 37.9485 29.0013C37.9656 29.0004 37.9827 29 38 29C38.0191 29 38.0382 29.0005 38.057 29.0016C38.2764 29.0139 38.4769 29.097 38.6361 29.2284C38.6608 29.2487 38.6845 29.2703 38.7071 29.2929L41.7071 32.2929C42.0976 32.6834 42.0976 33.3166 41.7071 33.7071C41.3166 34.0976 40.6834 34.0976 40.2929 33.7071L39 32.4142V37.8581C39 38.9275 38.6146 39.97 37.9032 40.7525C37.1889 41.5381 36.1985 42 35.1433 42L29.5 42C28.9477 42 28.5 41.5523 28.5 41C28.5 40.4477 28.9477 40 29.5 40Z" fill="black"/>
<path d="M11.5766 8.59297C11.9338 8.20015 12.3966 8 12.8567 8H22.5C23.0523 8 23.5 7.55228 23.5 7C23.5 6.44772 23.0523 6 22.5 6H12.8567C11.8015 6 10.8111 6.46188 10.0968 7.24751C9.38539 8.02996 9 9.07248 9 10.1419V15.5858L7.70711 14.2929C7.31658 13.9024 6.68342 13.9024 6.29289 14.2929C5.90237 14.6834 5.90237 15.3166 6.29289 15.7071L9.29289 18.7071C9.48043 18.8946 9.73478 19 10 19C10.2652 19 10.5196 18.8946 10.7071 18.7071L13.7071 15.7071C14.0976 15.3166 14.0976 14.6834 13.7071 14.2929C13.3166 13.9024 12.6834 13.9024 12.2929 14.2929L11 15.5858V10.1419C11 9.54473 11.2166 8.98895 11.5766 8.59297Z" fill="black"/>
</svg>

<svg
  xmlns="http://www.w3.org/2000/svg"
  width="24"
  height="24"
  viewBox="0 0 24 24"
  fill="none"
  stroke="currentColor"
  stroke-width="2"
  stroke-linecap="round"
  stroke-linejoin="round"
>
  <path
    fill-rule="evenodd"
    d="M28.896 15a5.2 5.2 0 0 0 .788 1.902l-.584.584a1 1 0 0 0-1.407 1.421l1.4 1.4a1 1 0 0 0 1.421-1.407l.584-.584c.565.38 1.21.653 1.902.788v.942A1 1 0 0 0 33.3 22h1.4a1 1 0 0 0 .3-1.954v-.942a5.2 5.2 0 0 0 2.303-1.087l.883.883a1 1 0 0 0 1.421 1.407l1.4-1.4a1 1 0 0 0-1.407-1.421l-1.02-1.02c.244-.453.423-.946.524-1.466h.942A1 1 0 0 0 42 14.7v-1.4a1 1 0 0 0-1.954-.3h-.942a5.2 5.2 0 0 0-.788-1.902l.584-.584a1 1 0 0 0 1.407-1.421l-1.4-1.4A1 1 0 0 0 37.486 9.1l-.584.584A5.2 5.2 0 0 0 35 8.896v-.942A1 1 0 0 0 34.7 6h-1.4a1 1 0 0 0-.3 1.954v.942a5.2 5.2 0 0 0-1.902.788l-.584-.584a1 1 0 0 0-1.421-1.407l-1.4 1.4a1 1 0 0 0 1.407 1.421l.584.584A5.2 5.2 0 0 0 28.896 13h-.942a1 1 0 0 0-1.954.3v1.4a1 1 0 0 0 1.954.3zm1.904-1a3.2 3.2 0 1 1 6.4 0 3.2 3.2 0 0 1-6.4 0"
    clip-rule="evenodd"
  />
  <path
    fill-rule="evenodd"
    d="M10.07 32a6.97 6.97 0 0 0 1.324 3.192L10 36.586l-.293-.293a1 1 0 0 0-1.414 1.414l2 2a1 1 0 0 0 1.414-1.414L11.414 38l1.394-1.394A6.97 6.97 0 0 0 16 37.93V40a1 1 0 1 0 0 2h2a1 1 0 1 0 0-2v-2.07a6.98 6.98 0 0 0 3.738-1.777L23.586 38l-.293.293a1 1 0 0 0 1.414 1.414l2-2a1 1 0 0 0-1.414-1.414l-.293.293-1.992-1.992c.467-.78.787-1.657.921-2.594H26a1 1 0 1 0 2 0v-2a1 1 0 1 0-2 0h-2.07a6.97 6.97 0 0 0-1.324-3.192L24 25.414l.293.293a1 1 0 0 0 1.414-1.414l-2-2a1 1 0 0 0-1.414 1.414l.293.293-1.394 1.394A6.97 6.97 0 0 0 18 24.07V22a1 1 0 1 0 0-2h-2a1 1 0 1 0 0 2v2.07a6.97 6.97 0 0 0-3.192 1.324L11.414 24l.293-.293a1 1 0 0 0-1.414-1.414l-2 2a1 1 0 1 0 1.414 1.414l.293-.293 1.394 1.394A6.97 6.97 0 0 0 10.07 30H8a1 1 0 1 0-2 0v2a1 1 0 1 0 2 0zM17 26a5 5 0 1 0 0 10 5 5 0 0 0 0-10"
    clip-rule="evenodd"
  />
  <path d="M29.5 40h5.643c.46 0 .923-.2 1.28-.593.36-.396.577-.952.577-1.549v-5.444l-1.293 1.293a1 1 0 0 1-1.414-1.414l2.998-2.998a.997.997 0 0 1 1.416-.002l3 3a1 1 0 0 1-1.414 1.414L39 32.414v5.444c0 1.07-.385 2.112-1.097 2.895C37.19 41.537 36.2 42 35.143 42H29.5a1 1 0 1 1 0-2" />
  <path d="M11.577 8.593c.357-.393.82-.593 1.28-.593H22.5a1 1 0 1 0 0-2h-9.643c-1.055 0-2.046.462-2.76 1.248A4.3 4.3 0 0 0 9 10.142v5.444l-1.293-1.293a1 1 0 0 0-1.414 1.414l3 3a1 1 0 0 0 1.414 0l3-3a1 1 0 0 0-1.414-1.414L11 15.586v-5.444c0-.597.217-1.153.577-1.549" />
</svg>
